images/favicon/favicon-orginal.svg

<svg width="230" height="230" viewBox="0 0 230 230" fill="none" xmlns="http://www.w3.org/2000/svg">
<circle cx="115" cy="115" r="115" fill="#17633D"/>
<path d="M139.832 93.7507C139.148 91.2152 138.142 88.9815 136.814 87.0497C135.486 85.0777 133.856 83.4074 131.924 82.0391C129.992 80.6707 127.779 79.6444 125.283 78.9602C122.788 78.2358 120.051 77.8736 117.073 77.8736C111.077 77.8736 105.885 79.3224 101.498 82.2202C97.1514 85.1179 93.7908 89.3437 91.4163 94.8977C89.0418 100.411 87.8545 107.112 87.8545 115.001C87.8545 122.929 89.0015 129.691 91.2955 135.285C93.5896 140.879 96.9099 145.145 101.256 148.083C105.603 151.021 110.875 152.49 117.073 152.49C122.547 152.49 127.175 151.605 130.958 149.834C134.782 148.023 137.679 145.467 139.651 142.167C141.623 138.867 142.609 134.983 142.609 130.516L148.163 131.18H118.1V109.386H171.406V125.746C171.406 136.814 169.051 146.292 164.342 154.18C159.674 162.069 153.234 168.126 145.024 172.352C136.854 176.577 127.457 178.69 116.832 178.69C105.04 178.69 94.6762 176.135 85.7416 171.023C76.8069 165.912 69.8443 158.628 64.8538 149.17C59.8633 139.672 57.368 128.403 57.368 115.363C57.368 105.221 58.8772 96.2258 61.8957 88.3778C64.9142 80.4896 69.1199 73.8087 74.5129 68.3352C79.9461 62.8617 86.2245 58.7164 93.3481 55.8991C100.512 53.0819 108.219 51.6733 116.47 51.6733C123.633 51.6733 130.294 52.6996 136.452 54.7521C142.65 56.8047 148.123 59.7024 152.872 63.4453C157.662 67.1882 161.545 71.6354 164.524 76.7869C167.502 81.9384 169.353 87.593 170.078 93.7507H139.832Z" fill="#F4F1EF"/>
</svg>

<svg xmlns="http://www.w3.org/2000/svg" width="230" height="230" fill="none"><circle cx="115" cy="115" r="115" fill="#17633D"/><path fill="#F4F1EF" d="M139.832 93.75c-.684-2.535-1.69-4.769-3.018-6.7a19.295 19.295 0 0 0-4.89-5.01c-1.932-1.37-4.145-2.396-6.641-3.08-2.495-.724-5.232-1.086-8.21-1.086-5.996 0-11.188 1.448-15.575 4.346-4.347 2.898-7.707 7.124-10.082 12.678-2.374 5.513-3.561 12.214-3.561 20.103 0 7.928 1.146 14.69 3.44 20.284 2.295 5.594 5.615 9.86 9.961 12.798 4.347 2.938 9.619 4.407 15.817 4.407 5.474 0 10.102-.885 13.885-2.656 3.824-1.811 6.721-4.367 8.693-7.667 1.972-3.3 2.958-7.184 2.958-11.651l5.554.664H118.1v-21.794h53.306v16.36c0 11.068-2.355 20.546-7.064 28.434-4.668 7.889-11.108 13.946-19.318 18.172-8.17 4.225-17.567 6.338-28.192 6.338-11.792 0-22.156-2.555-31.09-7.667-8.935-5.111-15.898-12.395-20.888-21.853-4.99-9.498-7.486-20.767-7.486-33.807 0-10.142 1.51-19.137 4.528-26.985 3.018-7.888 7.224-14.57 12.617-20.043 5.433-5.473 11.712-9.619 18.835-12.436 7.164-2.817 14.871-4.226 23.122-4.226 7.163 0 13.824 1.027 19.982 3.08 6.198 2.052 11.671 4.95 16.42 8.692 4.79 3.743 8.673 8.19 11.652 13.342 2.978 5.151 4.829 10.806 5.554 16.964h-30.246Z"/></svg>
